packages/Iconly/src/Location2Icon/index.svg

<svg xmlns="http://www.w3.org/2000/svg" width="24" height="24" viewBox="0 0 24 24"><g fill="#200E32" fill-rule="nonzero" transform="translate(5 2)"><path d="M3.53162364,0.93677136 C5.71648131,-0.332725549 8.40202895,-0.310536831 10.5663829,0.994894436 C12.7094606,2.32691389 14.0119656,4.70417621 13.9999171,7.2614437 C13.9499525,9.80193665 12.5532948,12.19 10.8074726,14.0360916 C9.79983405,15.1064007 8.67261414,16.0528287 7.44884341,16.8560387 C7.32280695,16.9289175 7.18475052,16.9777069 7.04148491,17 C6.90359952,16.9941293 6.76931787,16.9533854 6.65075329,16.8814437 C4.78242676,15.6745675 3.14333538,14.1340363 1.81233196,12.3339613 C0.698588545,10.8313638 0.0658356762,9.01600687 1.16173251e-06,7.13441906 L1.16173251e-06,7.13441906 L0.00498738283,6.86069219 C0.0959232361,4.40464541 1.42479659,2.16092909 3.53162364,0.93677136 Z M7.90726427,5.03477398 C7.01907148,4.65723455 5.99504406,4.86234968 5.31331796,5.5543476 C4.63159185,6.24634553 4.42664239,7.28872472 4.794164,8.19478048 C5.1616856,9.10083625 6.029182,9.69184263 6.99160428,9.69184862 C7.62210424,9.69637563 8.22818849,9.44382725 8.67481048,8.99047584 C9.12143248,8.53712442 9.37148354,7.92063779 9.36926261,7.27838032 C9.37261286,6.29803506 8.79545706,5.41231342 7.90726427,5.03477398 Z"/><ellipse cx="7" cy="19" opacity=".4" rx="5" ry="1"/></g></svg>

<svg xmlns="http://www.w3.org/2000/svg" viewBox="0 0 24 24">
  <g fill="#200E32" transform="translate(5 2)">
    <path d="M3.532.937a6.89 6.89 0 017.034.058C12.71 2.327 14.012 4.705 14 7.26c-.05 2.54-1.447 4.929-3.193 6.775a18.726 18.726 0 01-3.358 2.82A1.174 1.174 0 017.04 17a.82.82 0 01-.39-.119 18.515 18.515 0 01-4.839-4.547A9.28 9.28 0 010 7.134l.005-.273c.09-2.456 1.42-4.7 3.527-5.924zm4.375 4.098a2.346 2.346 0 00-2.594.52 2.455 2.455 0 00-.519 2.64 2.378 2.378 0 002.198 1.497 2.339 2.339 0 001.683-.702 2.43 2.43 0 00.694-1.712 2.423 2.423 0 00-1.462-2.243z"/>
    <ellipse cx="7" cy="19" opacity=".4" rx="5" ry="1"/>
  </g>
</svg>
